X: 4
T: Mademoiselle McCloud
M: C|
L: 1/8
K: G
|:\
"G"G2Bd edBg- | gBBA BcBA | "G"G2Bd "G#dim"edBg- | "Am"gAAG "D/F#"AcBA |\
"G"G2Bd edBg- | gBBA Bdef |
"C"gage "A/C#"d2fa | "D"gedB "D/F#"A [1 cBA :|2 def |:\
"G".g2.f2 "D/F#"edBg- | "Em"gBBA "D/F#"Bdef |
"G"gage "Em"d2fa | "Am"gedB "D"Adef |\
"G".g2.f2 "D/F#"edBg- | "Em"gBBA "D/F#"Bdef | "C"gage "A/C#"d2fa | "D"gedB "/F#"A \
[1 def :|[2 cBA |]["fin" z"G"G2 |]
% text 4/25/13

